X:1
T: The Laccarue Boys
C:
R:Jig
Q:180
K:Am
M:6/8
L:1/16
AB|E2A2A2 A2B2c2|B2A2G2 B2c2d2|e2f2e2 d2g2e2|d2B2G2 G4AG|E2A2A2 A2B2c2|B2A2G2 B2c2d2|e2f2e2 d2e2g2|e3dcB A4AG|
E2A2A2 A2B2c2|B2A2G2 B2c2d2|e2f2e2 d2g2e2|d2B2G2 G4AG|E2A2A2 A2B2c2|B2A2G2 B2c2d2|e2f2e2 d2e2g2|e3dcB A4BA|
G2B2d2 g2a2b2|B2A2G2 B2c2d2|e2a2a2 a2^g2a2|b3ag^f e4f2|g2a2g2 g2a2b2|B2A2G2 B2c2d2|e2f2e2 d2e2g2|e3dcB A4BA|
G2B2d2 g2a2b2|B2A2G2 B2c2d2|e2a2a2 a2^g2a2|b3ag^f e4f2|g2a2g2 g2a2b2|B2A2G2 B2c2d2|e2f2e2 d2e2g2|e3dcB A4||
